!!!COM: Scriabin, Alexander
!!!OTL@@FR: Prélude en mi majeur
!!!OTL@@EN: Prelude in E Major
!!!OPR@@FR: 5 Préludes
!!!OPR@@EN: 5 Preludes
!!!OPS: 15
!!!ONM: 4
!!!ODT: 1895
!!!AGN: Prelude
**kern	**kern	**dynam
*staff2	*staff1	*staff1/2
*Ipiano	*Ipiano	*
*clefF4	*clefG2	*
*k[f#c#g#d#]	*k[f#c#g#d#]	*
*E:	*E:	*
*M3/4	*M3/4	*
!	!	!LO:DY:b=2
8BBL	8r	pp
=1	=1	=1
8EEJ	8r	.
*^	*	*
8BL	4e 4f#	8b	mf
8AJ	.	8cc#L	.
*v	*v	*	*
8BBL	8gg#J	.
8AJ 8e 8f#	8ff#L	.
8BBL	8cc#J	.
=2	=2	=2
8EEJ	8bbL	.
*^	*	*
8c#L	4G# 4e	8cc#J	.
8BJ	.	8dd#L	.
*v	*v	*	*
8BBL	8eeJ	.
8G#J 8e 8g#	8b	.
8BBL	8bL	pp
=3	=3	=3
8EEJ	8eeJ	.
8c#L 8e	8aL	.
8F#J	8cc#J	.
8AL	8f#L	.
8BBJ	8eeeJ	.
8BBL	8aL	.
=4	=4	=4
8EEJ	8eeJ	.
8BL 8e	8g#L	.
8EJ	8bJ	.
8G#L	8eL	.
8BBJ	8eeeJ	.
8BBL	8r	.
=5	=5	=5
8EEJ	8r	.
*^	*	*^
!	!	!	!LO:DY:b=2	!
8BL	4e 4f#	8b	pp	mf
8AJ	.	8cc#L	.	.
*	*	*	*v	*v
*v	*v	*	*
8BBL	8gg#J	.
8AJ 8e 8f#	8ff#L	.
8BBL	8cc#J	.
!!LO:LB:g=original
=6	=6	=6
8EEJ	8bbL	<
*^	*	*
8c#L	4G# 4g#	8cc#J	.
8BJ	.	8dd#L	.
*v	*v	*	*
8C#L	8eeJ	.
8BJ 8e 8g#	8b	.
8EL	8bL	pp
=7	=7	=7
8FF#J	8dd#J	.
8BL 8c#	8g#L	.
8EJ	8cc#J	.
8G#L	8eL	.
8FF#J	8ff#J	.
8F#	8d#	>
=8	=8	=8
8EL	8c#L	)
8D#	8B	)
8F#	8c#	)
8FF#J	8d#J	)
8BBB	8b	]
8F#L	8r	.
=9	=9	=9
8BBJ	8r	.
8dnL 8f#	8b	mf
8G#J	8cc#L	<
8r	8ddn	(
8r	8ff#	(
8C#L	8ccc#J	[
=10	=10	=10
*	*^	*
8G#J	8r	8bbL	>
4dn	[8b	8ff#	)
.	4b] 4ee#X	8ggn	)
8c#L	.	8gg#X	)
8BJ	4e#X 4g#	8ddn	)
!	!	!	!LO:DY:b=2
8C#L	.	8cc#J	] pp
*	*v	*v	*
=11	=11	=11
8FF#J	8r	.
8AL 8c#	8f#	<
8D#J	8g#L	(
8r	8a	(
8r	8cc#	(
8GG#L	8gg#J	[
!!LO:LB:g=original
=12	=12	=12
*	*^	*
8D#J	8r	8ff#L	.
4A	[8f#	8cc#	>
.	4f#] 4b#X	8ddn	)
8G#L	.	8dd#X	)
8F#J	[8B#XL 8d#	8a	]
8D#L	8B#J] 8f#	8g#J	<
*	*v	*v	*
=13	=13	=13
8DnJ	8Bn 8f# 8g#	.
8BL 8f#	8g#	<
8G#J	8cc#L	[ >
8r	8b	]
8r	8ddn	<
8BL 8e#X	8g#J	[
=14	=14	=14
8C#J	8ddnL	.
8r	8cc#	>
4r	8b#X	)
.	8bn	)
8r	8a	)
8C#L	8g#J	]
=15	=15	=15
8CnJ	8r	.
8AL 8e	8f#	>
8F#J	8bL	.
8r	8a	.
8r	8ccn	.
8AL 8d#	8g#J	.
=16	=16	=16
8BBJ	8cc#XL	p
8r	8f#	.
4r	8dd#	.
.	8d#	.
8r	8ff#	.
!	!	!LO:DY:b=2
8BBL	8bJ	pp
!!LO:LB:g=original
=17	=17	=17
8EEJ	8r	.
*^	*	*
8BL	4e 4f#	8b	mf
8AJ	.	8cc#L	.
*v	*v	*	*
8BBL	8gg#J	.
8eJ 8f#	8ff#L	.
8BBL	8cc#J	.
=18	=18	=18
8EEJ	8bbL	.
*^	*	*
8c#L	4G# 4g#	8cc#J	.
8BJ	.	8dd#L	.
*v	*v	*	*
8BBL	8eeJ	.
8G#J 8e 8g#	8b	.
8BBL	8bL	pp
=19	=19	=19
8EEJ	8eeJ	.
8c#L 8e	8aL	.
8F#J	8cc#J	.
8AL	8f#L	.
8BBJ	8eeeJ	.
8BBL	8aL	.
=20	=20	=20
8EEJ	8eeJ	.
8BL 8e	8g#L	.
8EJ	8bJ	.
8G#L	8eL	.
8BBJ	8eeeJ	.
8BBL	8r	.
=21	=21	=21
8EEJ	8r	.
*clefG2	*	*
*^	*	*
8eL	4B 4a	8ee	.
8dnJ	.	8ff#L	.
*v	*v	*	*
8EL	8ccc#J	.
8BJ 8d 8a	8bbL	.
*clefF4	*	*
8EL	8ff#J	.
!!LO:LB:g=original
=22	=22	=22
8AAJ	8eeeL	.
*clefG2	*	*
*^	*	*
8f#L	4c# 4cc#	8ff#J	.
8eJ	.	8gg#L	.
*v	*v	*	*
8F#L	8aaJ	.
8eJ 8a 8cc#	8ee	.
*clefF4	*	*
8F#L	8eeL	.
=23	=23	=23
8BBJ	8gg#J	.
8eL 8f#	8cc#L	.
8AJ	8ff#J	.
8c#L	8aL	.
8BBJ	8bbJ	.
8B	8g#	.
=24	=24	=24
8AL	8f#L	>
8G#	8e	)
8C#	8g#	)
8FF#J	8a#XJ	]
8C# 8A#X 8e	8gg#	.
8FF#L	8eeL	.
=25	=25	=25
8BBBJ 8BB	8gg#J	.
8eL 8f#	8cc#L	.
8AnJ	8ff#J	.
8c#L	8aL	.
8BBJ	8bbJ	.
8B	8g#	.
=26	=26	=26
8AL	8f#L	.
8G#	8e	.
8B	8f#	.
8BBJ	8g#J	.
4EE	4ee	ppp
==	==	==
*-	*-	*-
!!!system-decoration: {(*)}
!!!filter: flipper -a
!!!RDF**dynam: > = dim.
!!!ENC: Bryan Jacob Bell
!!!END: November 2021 to April 2022
!!!PED: Konstantin Igumnov and Yakov Milstein
!!!PTL: A.N. Skryabin: Polnoe sobranie sochinenii dlia fortepiano (Muzgiz)
!!!URL-pdf: https://github.com/bel28kent/Mysterium/blob/main/reference_editions/op15.pdf
